dist/img/sprites/benefits-assistance-2.svg

<svg viewBox="0 0 261 261" fill="none" xmlns="http://www.w3.org/2000/svg">
<path d="M27.5 198.5L4 256L46.5 241.5L65 231.5L79.5 216L83 198.5L75 184.5L52 178L27.5 198.5Z" fill="#F1D2C3"/>
<path d="M158.283 165.256L150.912 157.884L246.757 62.0084C247.959 60.8134 248.912 59.3922 249.562 57.8267C250.212 56.2613 250.545 54.5826 250.542 52.8876V21.3541C250.545 20.4922 250.376 19.6384 250.046 18.8424C249.715 18.0464 249.23 17.324 248.618 16.7175L244.255 12.3537C243.648 11.742 242.926 11.2569 242.13 10.9264C241.334 10.5959 240.481 10.4267 239.62 10.4285H208.078C206.384 10.425 204.706 10.7571 203.141 11.4055C201.576 12.054 200.155 13.006 198.959 14.2067L103.114 110.075L95.7441 102.703L191.589 6.83474C193.748 4.66062 196.318 2.93699 199.148 1.76377C201.979 0.590548 205.014 -0.008924 208.078 0.00019652H239.62C241.854 -0.0106006 244.069 0.423615 246.134 1.27749C248.199 2.13136 250.074 3.38777 251.649 4.97364L256.02 9.32147C257.605 10.8975 258.862 12.7726 259.716 14.8382C260.571 16.9037 261.008 19.1185 261 21.3541V52.8956C261.008 55.96 260.408 58.9956 259.235 61.8265C258.063 64.6575 256.34 67.2277 254.167 69.3883L158.283 165.256Z" fill="#2C2A2D"/>
<path d="M167.799 261C165.916 260.998 164.074 260.447 162.497 259.413C160.92 258.379 159.675 256.907 158.914 255.175L129.67 188.495L102.039 185.362C99.8561 185.116 97.8214 184.13 96.2702 182.566L79.2988 165.511C77.7482 163.944 76.7685 161.898 76.5182 159.702L73.4179 131.946L7.09871 102.534C5.65531 101.894 4.38898 100.91 3.40926 99.6671C2.42954 98.424 1.76612 96.9596 1.47646 95.4005C1.1868 93.8415 1.27969 92.2349 1.74703 90.7201C2.21437 89.2053 3.042 87.828 4.15835 86.7074L21.7369 69.0331C23.8895 66.8552 26.4509 65.1286 29.2723 63.9536C32.0937 62.7786 35.1191 62.1786 38.173 62.1884H104.556L136.397 30.1658L143.748 37.5488L108.855 72.6323H38.117C36.4279 72.6277 34.7546 72.9598 33.1939 73.6093C31.6332 74.2588 30.216 75.2127 29.0241 76.4161L12.1966 93.4076L77.9645 122.57C79.5042 123.262 80.8388 124.343 81.8375 125.709C82.8363 127.075 83.4647 128.679 83.6615 130.363L86.7856 158.272L103.413 174.991L131.188 178.14C132.873 178.333 134.479 178.967 135.846 179.977C137.212 180.988 138.292 182.34 138.978 183.9L167.983 250.034L184.834 233.091C186.03 231.893 186.978 230.47 187.624 228.902C188.27 227.334 188.601 225.653 188.598 223.956V152.882L223.483 117.806L230.834 125.189L198.985 157.212V223.956C198.992 227.026 198.394 230.067 197.226 232.904C196.057 235.74 194.341 238.316 192.177 240.482L174.599 258.156C172.792 259.965 170.349 260.987 167.799 261V261Z" fill="#2C2A2D"/>
<path d="M208.53 70.824C204.282 70.8222 200.167 69.3479 196.884 66.6523C193.602 63.9566 191.355 60.2064 190.528 56.0403C189.7 51.8742 190.342 47.5501 192.345 43.8044C194.348 40.0587 197.587 37.1232 201.512 35.4979C205.436 33.8726 209.802 33.6581 213.867 34.8908C217.931 36.1236 221.443 38.7274 223.803 42.2587C226.164 45.79 227.227 50.0304 226.811 54.2575C226.396 58.4846 224.528 62.4371 221.526 65.4415V65.4415C219.824 67.154 217.798 68.5116 215.567 69.4355C213.337 70.3594 210.944 70.8314 208.53 70.824V70.824ZM208.53 44.8571C207.28 44.8551 206.048 45.1618 204.945 45.7498C203.842 46.3378 202.901 47.1889 202.205 48.2277C201.51 49.2666 201.082 50.461 200.958 51.7051C200.835 52.9491 201.021 54.2044 201.499 55.3595C201.977 56.5146 202.733 57.5339 203.699 58.3269C204.666 59.1199 205.813 59.662 207.039 59.9054C208.266 60.1488 209.533 60.0858 210.729 59.722C211.925 59.3581 213.013 58.7047 213.896 57.8198V57.8198C214.956 56.7574 215.678 55.4048 215.97 53.9327C216.262 52.4606 216.111 50.9351 215.537 49.5484C214.963 48.1617 213.992 46.9761 212.744 46.1412C211.497 45.3063 210.031 44.8594 208.53 44.8571Z" fill="#2C2A2D"/>
<path d="M161.965 116.729C157.869 116.726 153.901 115.303 150.736 112.702C147.571 110.101 145.406 106.484 144.61 102.466C143.813 98.4478 144.434 94.2778 146.367 90.6664C148.3 87.0551 151.426 84.2257 155.211 82.6604C158.997 81.095 163.208 80.8906 167.127 82.0818C171.046 83.2731 174.431 85.7864 176.705 89.1935C178.979 92.6006 180.001 96.6908 179.597 100.767C179.194 104.843 177.39 108.654 174.492 111.549C172.848 113.194 170.895 114.499 168.745 115.388C166.595 116.277 164.291 116.732 161.965 116.729V116.729ZM161.965 91.7083C160.271 91.7075 158.629 92.2944 157.319 93.3688C156.009 94.4432 155.112 95.9387 154.781 97.6004C154.45 99.2621 154.706 100.987 155.504 102.481C156.303 103.976 157.595 105.147 159.16 105.795C160.725 106.444 162.467 106.529 164.088 106.037C165.71 105.545 167.11 104.506 168.051 103.097C168.992 101.688 169.416 99.9965 169.249 98.3104C169.082 96.6243 168.336 95.0482 167.137 93.8506C166.459 93.1697 165.653 92.6298 164.766 92.2621C163.878 91.8944 162.926 91.7061 161.965 91.7083V91.7083Z" fill="#2C2A2D"/>
<path d="M6.12288 260.999C5.14076 261.001 4.17264 260.765 3.3006 260.314C2.42856 259.862 1.67829 259.207 1.11319 258.403C0.548079 257.6 0.184896 256.672 0.0542923 255.699C-0.0763114 254.725 0.0295425 253.734 0.362924 252.811L19.157 200.869C19.644 199.529 20.4178 198.313 21.4242 197.304L39.8498 178.876C41.2544 177.464 42.9248 176.345 44.7646 175.583C46.6045 174.821 48.5773 174.432 50.5686 174.437H65.5175C66.914 174.433 68.2974 174.707 69.5874 175.242C70.8774 175.777 72.0481 176.563 73.0318 177.554L83.4463 187.97C84.4378 188.955 85.2238 190.127 85.7587 191.419C86.2937 192.71 86.5671 194.095 86.5628 195.493V210.443C86.5682 212.435 86.1779 214.409 85.4147 216.249C84.6514 218.089 83.5304 219.76 82.1165 221.163L63.6909 239.591C62.6803 240.597 61.4643 241.373 60.126 241.866L8.18981 260.67C7.52587 260.902 6.82589 261.013 6.12288 260.999V260.999ZM28.8985 204.554L13.2848 247.723L56.4489 232.1L74.7622 213.784C75.2049 213.345 75.5562 212.821 75.7955 212.245C76.0347 211.669 76.1572 211.051 76.1561 210.427V195.477C76.1557 195.42 76.1328 195.365 76.0922 195.325L65.6777 184.909C65.6374 184.868 65.5827 184.845 65.5255 184.845H50.5766C49.9528 184.844 49.3348 184.966 48.7587 185.206C48.1825 185.445 47.6596 185.796 47.22 186.239L28.8985 204.554Z" fill="#2C2A2D"/>
</svg>

<svg viewBox="0 0 261 261" fill="none" xmlns="http://www.w3.org/2000/svg"><path d="M27.5 198.5L4 256l42.5-14.5 18.5-10L79.5 216l3.5-17.5-8-14-23-6.5-24.5 20.5z" fill="#F1D2C3"/><path d="M158.283 165.256l-7.371-7.372 95.845-95.876a12.837 12.837 0 003.785-9.12V21.354a6.5 6.5 0 00-1.924-4.636l-4.363-4.364a6.51 6.51 0 00-4.635-1.925h-31.542a12.83 12.83 0 00-9.119 3.778l-95.845 95.868-7.37-7.372L191.59 6.835A23.145 23.145 0 01208.078 0h31.542a16.836 16.836 0 0112.029 4.974l4.371 4.347A16.88 16.88 0 01261 21.354v31.542a23.173 23.173 0 01-6.833 16.492l-95.884 95.868z" fill="#2C2A2D"/><path d="M167.799 261a9.687 9.687 0 01-5.302-1.587 9.762 9.762 0 01-3.583-4.238l-29.244-66.68-27.631-3.133a9.647 9.647 0 01-5.769-2.796L79.3 165.511a9.842 9.842 0 01-2.78-5.809l-3.101-27.756-66.32-29.412a9.71 9.71 0 01-3.689-2.867 9.804 9.804 0 01-1.662-8.947 9.763 9.763 0 012.411-4.013l17.579-17.674a23.063 23.063 0 017.535-5.08 22.958 22.958 0 018.901-1.765h66.383l31.841-32.022 7.351 7.383-34.893 35.083H38.117a12.722 12.722 0 00-4.923.977 12.78 12.78 0 00-4.17 2.807L12.197 93.408l65.767 29.162a9.748 9.748 0 013.874 3.139 9.816 9.816 0 011.824 4.654l3.124 27.909 16.627 16.719 27.775 3.149a9.697 9.697 0 014.658 1.837 9.775 9.775 0 013.132 3.923l29.005 66.134 16.851-16.943a12.863 12.863 0 002.79-4.189c.646-1.568.977-3.249.974-4.946v-71.074l34.885-35.076 7.351 7.383-31.849 32.023v66.744a23.366 23.366 0 01-1.759 8.948 23.267 23.267 0 01-5.049 7.578l-17.578 17.674a9.682 9.682 0 01-6.8 2.844zM208.53 70.824a18.364 18.364 0 01-16.185-27.02 18.361 18.361 0 1129.181 21.638 18.242 18.242 0 01-12.996 5.382zm0-25.967a7.597 7.597 0 105.366 12.963 7.597 7.597 0 00-5.366-12.963z" fill="#2C2A2D"/><path d="M161.965 116.729a17.706 17.706 0 1112.527-5.18 17.673 17.673 0 01-12.527 5.18zm0-25.02a7.321 7.321 0 105.172 2.142 7.281 7.281 0 00-5.172-2.143zM6.123 260.999a6.118 6.118 0 01-5.01-2.596 6.112 6.112 0 01-.75-5.592l18.794-51.942a9.776 9.776 0 012.267-3.565l18.426-18.428a15.06 15.06 0 0110.719-4.439h14.948a10.546 10.546 0 017.515 3.117l10.414 10.416a10.55 10.55 0 013.117 7.523v14.95a15.05 15.05 0 01-4.447 10.72l-18.425 18.428a9.907 9.907 0 01-3.565 2.275L8.19 260.67a5.909 5.909 0 01-2.067.329zm22.775-56.445l-15.613 43.169L56.449 232.1l18.313-18.316a4.717 4.717 0 001.394-3.357v-14.95a.216.216 0 00-.064-.152l-10.414-10.416a.213.213 0 00-.153-.064H50.577a4.707 4.707 0 00-3.357 1.394l-18.322 18.315z" fill="#2C2A2D"/></svg>
